X:55
T:In Leinster There Dwelt A Young Damsel
F:http://www.vwml.org/record/FK/2/90
M:3/4
L:1/4
S:[Irish street singer]
Z:Transcribed by Steve Mansfield, October 2015
K:Bb
B,/C/ | DFG | FDC | B,<G, B,/C/ | DFG |
DC>B, | B,2 |: F/G/ | BcB | GFD |
GF B,/C/ | DFG | DC>B, | B,2 :|]
T:Music for 2nd verse
B,/C/ | DFG | FDC | B,<G, B,/C/ | DFG |
DC>B, | B,2 F/G/ | BcB | GFD | GF F/G/ |
BcB | GFD | G2F/G/ | BcB | GFD |
CB, B,/C/ | DFG | DC>B, | B,2 |]

